X:798
T:Reel 798
M:4/4
K:Gmaj
L:1/8
ge|dBAB GABG|AGeG A2Bc|dcBG GBdg|ecAF G2fe|dcBd g2fg|ecAF G2G2|BcBA G2fg|ecAB A2|
